X:1
T:Title
%%score { ( 1 3 ) | ( 2 4 ) }
L:1/8
M:9/8
K:Eb
V:1 treble nm="Grand Piano"
V:3 treble 
V:2 bass 
V:4 bass 
V:1
 z3 z3[Q:1/4=100] [CE][=B,D][CE] | [CA]3 [Ec]3 [CE][CF][CA] | G6 EFE | E3 [G_d]2 [Gd] FGF | %4
 [CE]6 [CE][=B,D][CE] | z3 z3 z2 c | [Fe]3 [F_d]3 [FA][EG]F | E3 A2 A BFG |[M:3/4] [CA]6 | %9
[M:3/8] BBB |[M:9/8] B3 E3 ccc | c3 A3 ccc | B3 B3 dcB | [Ge]6 z3 | z3 z3 z2 c | %15
 [Fe]3 [F_d]3 [FA][EG]F | E3 A3 BFG |[M:3/4] [CA]6 |] %18
V:2
 z3 z3 [A,,A,][A,,A,][A,,A,] | [A,,E,]3 [A,,A,]3 [A,,A,][A,,A,][A,,A,] | %2
 [E,B,_D]6 [E,G,D][E,A,D][E,G,D] | [E,G,]3 [E,B,]2 [E,B,] [E,G,_D][E,B,D][E,G,D] | %4
 [A,,A,]6 [A,,A,][A,,A,][A,,A,] | [A,,E,]3 [A,,A,]3[K:treble] [A,C][A,_DG].[A,E_G] | %6
 [_D,A,]3 [D,A,]3 [D,_D][D,D][D,A,D] | [E,A,C]3 [E,A,C]2 [E,A,C] [E,G,_D][E,G,D][E,B,D] | %8
[M:3/4] [A,,A,]6 |[M:3/8] [E,G,_D][E,G,D][E,G,D] | %10
[M:9/8] [E,G,_D]3 [E,B,D]3[K:treble] [A,E][A,E][A,E] | [A,E]3 [A,CE]3 [A,EA][A,EA][A,EA] | %12
 [B,EG]3 [B,EG]3 [B,FA][B,EA][B,DA] | z3 ._D3 [A,,A,][A,,A,][A,,A,] | %14
 [A,,E,]3 [A,,A,]3[K:treble] [A,C][A,_DG].[A,E_G] | [_D,A,]3 [D,A,]3 [D,_D][D,D][D,A,D] | %16
 [E,A,C]3 [E,A,C]3 [E,G,_D][E,G,D][E,B,D] |[M:3/4] [A,,A,]6 |] %18
V:3
 x9 | x9 | x9 | x9 | x9 | [CA]3 [Ec]3 A.B>A, | x9 | x9 |[M:3/4] x6 |[M:3/8] x3 |[M:9/8] x9 | x9 | %12
 x9 | E3 z3 [CE][=B,D][CE] | [CA]3 [Ec]3 A.B>A, | x9 | x9 |[M:3/4] x6 |] %18
V:4
 x9 | x9 | x9 | x9 | x9 | x6[K:treble] x3 | x9 | x9 |[M:3/4] x6 |[M:3/8] x3 | %10
[M:9/8] x6[K:treble] x3 | x9 | x9 | E,6 z3 | x6[K:treble] x3 | x9 | x9 |[M:3/4] x6 |] %18

